public/svg/about-us/top.svg

<svg width="40" height="56" viewBox="0 0 40 56" fill="none" xmlns="http://www.w3.org/2000/svg">
<path d="M22.6359 3.6289L22.9947 3.97996L23.456 3.78219L26.8458 2.32907L28.3719 5.68661L28.5795 6.14355L29.0812 6.1258L32.767 5.99532L32.9771 9.67742L33.0057 10.1785L33.4799 10.3432L36.9639 11.553L35.8297 15.0624L35.6754 15.54L36.0581 15.8648L38.8698 18.2515L36.5445 21.1141L36.228 21.5037L36.4675 21.9449L38.2272 25.1861L35.0248 27.0155L34.589 27.2644L34.6529 27.7623L35.1229 31.4203L31.4759 31.9693L30.9796 32.044L30.8594 32.5314L29.9762 36.1121L26.3772 35.3066L25.8874 35.197L25.5992 35.608L23.4822 38.628L20.4171 36.5767L20 36.2975L19.5829 36.5767L16.5178 38.628L14.4008 35.608L14.1127 35.197L13.6228 35.3066L10.0238 36.1121L9.14061 32.5314L9.02042 32.044L8.52408 31.9693L4.87707 31.4203L5.34708 27.7623L5.41104 27.2644L4.97521 27.0155L1.7728 25.1861L3.5325 21.9449L3.77198 21.5037L3.45552 21.1141L1.13021 18.2515L3.94195 15.8648L4.32461 15.54L4.17026 15.0624L3.0361 11.553L6.52012 10.3432L6.99428 10.1785L7.02289 9.67742L7.23305 5.99532L10.9188 6.1258L11.4205 6.14355L11.6281 5.68661L13.1542 2.32907L16.544 3.78219L17.0053 3.97996L17.3641 3.6289L20 1.04937L22.6359 3.6289Z" stroke="white" stroke-width="1.5"/>
<path d="M9.5 33C5.23468 38.1424 3.78444 42.2081 2 49.5L11.5 47L16 53C16.5793 46.23 17.0053 42.714 20 38.5" stroke="white" stroke-width="1.5"/>
<path d="M30.5 33C35.2034 37.421 36.212 41.7547 38 49.5L28.5 47L24 53C23.5701 45.902 23.1914 42.0983 20 38.5" stroke="white" stroke-width="1.5"/>
<path d="M20 10.5664L22.7683 15.6425L22.9388 15.9551L23.2887 16.0206L28.9719 17.0849L24.9997 21.2863L24.7551 21.545L24.8009 21.8981L25.5449 27.6319L20.3216 25.1525L20 24.9998L19.6784 25.1525L14.4551 27.6319L15.1991 21.8981L15.2449 21.545L15.0003 21.2863L11.0281 17.0849L16.7113 16.0206L17.0612 15.9551L17.2317 15.6425L20 10.5664Z" stroke="white" stroke-width="1.5"/>
</svg>

<svg width="40" height="56" fill="none" xmlns="http://www.w3.org/2000/svg"><path d="M22.636 3.629l.359.351.461-.198 3.39-1.453 1.526 3.358.207.457.502-.018 3.686-.13.21 3.681.029.502.474.164 3.484 1.21-1.134 3.51-.155.477.383.325 2.812 2.386-2.325 2.863-.317.39.24.44 1.76 3.242-3.203 1.83-.436.248.064.498.47 3.658-3.647.55-.496.074-.12.487-.884 3.581-3.599-.805-.49-.11-.288.411-2.117 3.02-3.065-2.051-.417-.28-.417.28-3.065 2.051-2.117-3.02-.288-.411-.49.11-3.6.805-.882-3.58-.12-.488-.497-.075-3.647-.549.47-3.658.064-.498-.436-.248-3.202-1.83 1.76-3.241.239-.441-.316-.39-2.326-2.863 2.812-2.386.383-.325-.155-.478-1.134-3.509 3.484-1.21.474-.165.029-.5.21-3.683 3.686.13.502.019.207-.457 1.526-3.358 3.39 1.453.461.198.36-.351L20 1.049l2.636 2.58z" stroke="#fff" stroke-width="1.5"/><path d="M9.5 33C5.235 38.142 3.784 42.208 2 49.5l9.5-2.5 4.5 6c.58-6.77 1.005-10.286 4-14.5M30.5 33c4.703 4.421 5.712 8.755 7.5 16.5L28.5 47 24 53c-.43-7.098-.809-10.902-4-14.5m0-27.934l2.768 5.076.17.313.35.066 5.684 1.064L25 21.286l-.245.259.046.353.744 5.734-5.223-2.48L20 25l-.322.152-5.223 2.48.744-5.734.046-.353-.245-.259-3.972-4.201 5.683-1.064.35-.066.17-.313L20 10.567z" stroke="#fff" stroke-width="1.5"/></svg>
